X: 41844
T: Violet Buchanan Of Balfron
R: jig
M: 6/8
K: Fmajor
f3 FAc|BAB dcB|Aff fef|gec cde|
f3 FAc|BAB dcB|Acf ABG|1 AFF F2e:|2 AFF F2f||
|:g3ceg|fef afA|Bdb Aca|g2f edc|
[1 g3ceg|fef afA|Bcd GcB|AFF F2f:|
[2 f3FAc|BAB dcB|Acf ABG|AFF F2||

